X: 4017
T: Blackwater, The
R: polka
M: 2/4
K: Amajor
|:F|E>F AB|ce ce/c/|BA/B/ cA|BA FA|
E>F AB|ce ce/c/|BA/B/ c/e/c/B/|A2 A:|
|:e|a2 f/g/a/f/|ec ec/B/|A2 Bc|BA FA|
[1 a2 f/g/a/f/|ec ec/B/|A2 Bc|BA A:|
[2 E>F AB|ce ce/c/|BA/B/ cB|A2 A||

